assets/Hot beverage/Flat/hot_beverage_flat.svg

<svg width="32" height="32" viewBox="0 0 32 32" fill="none" xmlns="http://www.w3.org/2000/svg">
<path d="M14.5 30C20.8513 30 26 24.8513 26 18.5C26 12.1487 20.8513 7 14.5 7C8.14873 7 3 12.1487 3 18.5C3 24.8513 8.14873 30 14.5 30Z" fill="#D3D3D3"/>
<path d="M14.42 27.5C9.24998 27.5 5.03998 22.8 5.03998 17.63H23.8C23.8 22.8 19.59 27.5 14.42 27.5Z" fill="#9B9B9B"/>
<path d="M21.4 12.38C19.68 10.46 17.19 9.25 14.42 9.25C11.65 9.25 9.14998 10.46 7.42998 12.38H5.03998V17.63C5.03998 22.8 9.24998 27.01 14.42 27.01C18.798 27.01 22.4876 23.991 23.5153 19.9267L24.5742 18.8867C24.5742 18.8867 23.7869 18.2351 23.7964 17.8906C23.7988 17.804 23.8 17.7171 23.8 17.63V12.38H21.4Z" fill="#E6E6E6"/>
<path d="M23.79 12.38C23.79 17.5604 19.5905 21.76 14.41 21.76C9.2296 21.76 5.03003 17.5604 5.03003 12.38C5.03003 7.19957 9.2296 3 14.41 3C18.0116 3 21.1391 5.02982 22.7109 8.00787C22.8133 8.00265 22.9163 8 23.0199 8C26.3199 8 28.9999 10.68 28.9999 13.98C28.9999 17.1144 26.5822 19.6894 23.5119 19.94C23.6799 19.2794 23.7777 18.5911 23.7966 17.8835C25.6178 17.52 26.9999 15.9044 26.9999 13.98C26.9999 11.9492 25.4694 10.2624 23.4927 10.0279C23.6868 10.7795 23.79 11.5677 23.79 12.38Z" fill="#F4F4F4"/>
<path d="M14.41 20.67C18.9884 20.67 22.7 16.9584 22.7 12.38C22.7 7.80153 17.6651 5.08997 14.41 5.08997C11.6245 5.08997 6.12 7.80153 6.12 12.38C6.12 16.9584 9.83155 20.67 14.41 20.67Z" fill="#7D4533"/>
<path d="M6.14041 12.9663C6.44107 9.8669 10.0286 6.08997 14.41 6.08997C18.7899 6.08997 22.3765 9.91743 22.6793 12.9701C22.693 12.7752 22.7 12.5784 22.7 12.38C22.7 7.80153 18.9884 4.08997 14.41 4.08997C9.83155 4.08997 6.12 7.80153 6.12 12.38C6.12 12.5771 6.12688 12.7726 6.14041 12.9663Z" fill="#9B9B9B"/>
</svg>

<svg xmlns="http://www.w3.org/2000/svg" width="32" height="32" fill="none"><path fill="#D3D3D3" d="M14.5 30C20.851 30 26 24.851 26 18.5S20.851 7 14.5 7 3 12.149 3 18.5 8.149 30 14.5 30Z"/><path fill="#9B9B9B" d="M14.42 27.5c-5.17 0-9.38-4.7-9.38-9.87H23.8c0 5.17-4.21 9.87-9.38 9.87Z"/><path fill="#E6E6E6" d="M21.4 12.38a9.348 9.348 0 0 0-6.98-3.13 9.37 9.37 0 0 0-6.99 3.13H5.04v5.25c0 5.17 4.21 9.38 9.38 9.38 4.378 0 8.068-3.019 9.095-7.083l1.06-1.04s-.788-.652-.779-.996c.003-.087.004-.174.004-.261v-5.25h-2.4Z"/><path fill="#F4F4F4" d="M23.79 12.38a9.38 9.38 0 1 1-1.08-4.372A5.983 5.983 0 0 1 29 13.98a5.984 5.984 0 0 1-5.487 5.96 9.35 9.35 0 0 0 .285-2.056A3.994 3.994 0 0 0 27 13.98c0-2.03-1.53-3.718-3.507-3.952.194.752.297 1.54.297 2.352Z"/><path fill="#7D4533" d="M14.41 20.67a8.29 8.29 0 0 0 8.29-8.29c0-4.578-5.035-7.29-8.29-7.29-2.786 0-8.29 2.712-8.29 7.29a8.29 8.29 0 0 0 8.29 8.29Z"/><path fill="#9B9B9B" d="M6.14 12.966c.301-3.1 3.889-6.876 8.27-6.876 4.38 0 7.966 3.827 8.27 6.88a8.29 8.29 0 1 0-16.539-.004Z"/></svg>
